src/next/cmd/sc_shear.svg

<svg height="16" width="16" xmlns="http://www.w3.org/2000/svg" xmlns:xlink="http://www.w3.org/1999/xlink"><linearGradient id="a" gradientTransform="matrix(1.5714286 0 0 2 -77.455357 -24)" gradientUnits="userSpaceOnUse" x1="102.31124" x2="74.330322" xlink:href="#d" y1="-5.830213" y2="32"/><linearGradient id="b" gradientTransform="matrix(.8333334 0 0 .888889 -5.333332 -16.888886)" gradientUnits="userSpaceOnUse" x1="42.728634" x2="124.09152" y1="99.999985" y2="27.999992"><stop offset="0" stop-color="#fff"/><stop offset=".42597079" stop-color="#fff"/><stop offset=".5892781" stop-color="#f1f1f1"/><stop offset=".80219781" stop-color="#eaeaea"/><stop offset="1" stop-color="#dfdfdf"/></linearGradient><linearGradient id="c" gradientTransform="matrix(.09716559 0 0 .1301193 -6.30617 -71.503536)" gradientUnits="userSpaceOnUse" x1="399.77466" x2="399.77466" y1="1164.6696" y2="549.06134"><stop offset="0" stop-color="#b4b4b6"/><stop offset=".5" stop-color="#9c9ca1"/><stop offset="1" stop-color="#cdcdd1"/></linearGradient><linearGradient id="d"><stop offset="0" stop-color="#fff"/><stop offset="1" stop-color="#fff" stop-opacity="0"/></linearGradient><linearGradient id="e" gradientTransform="matrix(3.3333334 0 -.639827 2.5593082 69.638116 -169.21913)" gradientUnits="userSpaceOnUse" x1="20" x2="20" xlink:href="#d" y1="78.165009" y2="109.84906"/><linearGradient id="f" gradientTransform="matrix(.8333334 0 0 .9162458 40.666665 32.068602)" gradientUnits="userSpaceOnUse" x1="80.34671" x2="73.462685" y1="17.268518" y2="107.95493"><stop offset="0" stop-color="#c7cdd7"/><stop offset="1" stop-color="#fff"/></linearGradient><linearGradient id="g" gradientUnits="userSpaceOnUse" x1="125.157229" x2="51.268184" y1="25.786163" y2="25.786163"><stop offset="0" stop-color="#0968ef"/><stop offset="1" stop-color="#aecffc"/></linearGradient><g transform="scale(.125)"><rect fill="url(#c)" height="80" opacity=".75" rx="2.857143" ry="2.769231" width="96"/><rect fill="url(#b)" fill-rule="evenodd" height="64" rx="1.5" ry="1.444445" width="80" x="8" y="8"/><path d="m66.330357 8c-16.78846 18.856165-32.526091 39.251232-42.330357 64h42.772322c2.395595-23.69396 9.873977-45.098309 20.183035-64z" fill="url(#a)" fill-rule="evenodd"/><rect fill="#81a2d1" height="82.462112" rx="2.857143" ry="2.63168" transform="matrix(1 0 -.2425356 .9701425 0 0)" width="96" x="46" y="49.477268"/><g fill-rule="evenodd"><rect fill="url(#f)" height="65.969688" rx="1.5" ry="1.372697" transform="matrix(1 0 -.2425356 .9701425 0 0)" width="80" x="54" y="57.72348"/><path d="m45 56c-2.77 0-5.407749 1.630996-5.919752 3.679006l-6.458254 25.833017c26.406949 3.10247 53.005766 3.380002 79.900026.399892l6.55823-26.232909c.512-2.048016-1.31025-3.679006-4.08025-3.679006z" fill="url(#e)"/><path d="m132 28-24-20-3.97484 3.974843 7.79874 12.025157h-79.849058v8h79.849058l-7.79874 11.823899 3.97484 4.176101z" fill="url(#g)"/></g></g></svg>

<?xml version="1.0" encoding="UTF-8" standalone="no"?>
<!-- Created with Inkscape (http://www.inkscape.org/) -->

<svg
   xmlns:dc="http://purl.org/dc/elements/1.1/"
   xmlns:cc="http://creativecommons.org/ns#"
   xmlns:rdf="http://www.w3.org/1999/02/22-rdf-syntax-ns#"
   xmlns:svg="http://www.w3.org/2000/svg"
   xmlns="http://www.w3.org/2000/svg"
   xmlns:xlink="http://www.w3.org/1999/xlink"
   xmlns:sodipodi="http://sodipodi.sourceforge.net/DTD/sodipodi-0.dtd"
   xmlns:inkscape="http://www.inkscape.org/namespaces/inkscape"
   width="16"
   height="16"
   id="svg2"
   sodipodi:version="0.32"
   inkscape:version="0.92.3 (2405546, 2018-03-11)"
   sodipodi:modified="true"
   version="1.0"
   sodipodi:docname="sc_shear.svg"
   inkscape:output_extension="org.inkscape.output.svgz.inkscape"
   inkscape:export-filename="/home/rizmut/Dokumen/Rizmut/Github/libreoffice-style-karasa-jaga/build/next/cmd/sc_shear.png"
   inkscape:export-xdpi="96"
   inkscape:export-ydpi="96">
  <defs
     id="defs4">
    <inkscape:perspective
       sodipodi:type="inkscape:persp3d"
       inkscape:vp_x="0 : 64 : 1"
       inkscape:vp_y="0 : 1000 : 0"
       inkscape:vp_z="128 : 64 : 1"
       inkscape:persp3d-origin="64 : 42.666667 : 1"
       id="perspective44" />
    <linearGradient
       y2="32"
       x2="74.330322"
       y1="-5.8302126"
       x1="102.31124"
       gradientTransform="matrix(1.5714286,0,0,2,-77.455357,-24)"
       gradientUnits="userSpaceOnUse"
       id="linearGradient3292"
       xlink:href="#linearGradient3310"
       inkscape:collect="always" />
    <linearGradient
       y2="27.999992"
       x2="124.09152"
       y1="99.999985"
       x1="42.728634"
       gradientTransform="matrix(0.8333334,0,0,0.888889,-5.3333316,-16.888886)"
       gradientUnits="userSpaceOnUse"
       id="linearGradient3289"
       xlink:href="#linearGradient2431"
       inkscape:collect="always" />
    <linearGradient
       y2="549.06134"
       x2="399.77466"
       y1="1164.6696"
       x1="399.77466"
       gradientTransform="matrix(0.09716559,0,0,0.1301193,-6.3061697,-71.503536)"
       gradientUnits="userSpaceOnUse"
       id="linearGradient3287"
       xlink:href="#linearGradient7422"
       inkscape:collect="always" />
    <linearGradient
       gradientTransform="matrix(1.9362358,0,0,1.1370159,180.51011,-41.096128)"
       gradientUnits="userSpaceOnUse"
       y2="-12.523698"
       x2="28.913122"
       y1="67.869316"
       x1="16.263456"
       id="linearGradient3330"
       xlink:href="#linearGradient2399"
       inkscape:collect="always" />
    <linearGradient
       id="linearGradient2399">
      <stop
         id="stop2401"
         offset="0"
         style="stop-color:#0968ef;stop-opacity:1;" />
      <stop
         id="stop2403"
         offset="1"
         style="stop-color:#aecffc;stop-opacity:1;" />
    </linearGradient>
    <linearGradient
       id="linearGradient2431">
      <stop
         style="stop-color:#ffffff;stop-opacity:1;"
         offset="0"
         id="stop2433" />
      <stop
         id="stop2435"
         offset="0.42597079"
         style="stop-color:#ffffff;stop-opacity:1;" />
      <stop
         id="stop2437"
         offset="0.5892781"
         style="stop-color:#f1f1f1;stop-opacity:1;" />
      <stop
         style="stop-color:#eaeaea;stop-opacity:1;"
         offset="0.80219781"
         id="stop2439" />
      <stop
         style="stop-color:#dfdfdf;stop-opacity:1;"
         offset="1"
         id="stop2441" />
    </linearGradient>
    <linearGradient
       id="linearGradient7422">
      <stop
         style="stop-color:#b4b4b6;stop-opacity:1;"
         offset="0"
         id="stop7424" />
      <stop
         id="stop5348"
         offset="0.5"
         style="stop-color:#9c9ca1;stop-opacity:1;" />
      <stop
         id="stop7426"
         offset="1"
         style="stop-color:#cdcdd1;stop-opacity:1;" />
    </linearGradient>
    <linearGradient
       id="linearGradient3310"
       inkscape:collect="always">
      <stop
         id="stop3312"
         offset="0"
         style="stop-color:#ffffff;stop-opacity:1;" />
      <stop
         id="stop3314"
         offset="1"
         style="stop-color:#ffffff;stop-opacity:0;" />
    </linearGradient>
    <linearGradient
       id="linearGradient3314"
       inkscape:collect="always">
      <stop
         id="stop3316"
         offset="0"
         style="stop-color:#ffffff;stop-opacity:1;" />
      <stop
         id="stop3318"
         offset="1"
         style="stop-color:#ffffff;stop-opacity:0;" />
    </linearGradient>
    <linearGradient
       id="linearGradient3323">
      <stop
         style="stop-color:#c7cdd7;stop-opacity:1;"
         offset="0"
         id="stop3325" />
      <stop
         style="stop-color:#ffffff;stop-opacity:1;"
         offset="1"
         id="stop3327" />
    </linearGradient>
    <linearGradient
       inkscape:collect="always"
       xlink:href="#linearGradient3314"
       id="linearGradient2531"
       gradientUnits="userSpaceOnUse"
       gradientTransform="matrix(3.3333334,0,-0.639827,2.5593082,69.638116,-169.21913)"
       x1="20"
       y1="78.165009"
       x2="20"
       y2="109.84906" />
    <linearGradient
       inkscape:collect="always"
       xlink:href="#linearGradient3323"
       id="linearGradient2534"
       gradientUnits="userSpaceOnUse"
       gradientTransform="matrix(0.8333334,0,0,0.9162458,40.666665,32.068602)"
       x1="80.34671"
       y1="17.268518"
       x2="73.462685"
       y2="107.95493" />
    <linearGradient
       inkscape:collect="always"
       xlink:href="#linearGradient2399"
       id="linearGradient3514"
       x1="113.15723"
       y1="25.786163"
       x2="39.268185"
       y2="25.786163"
       gradientUnits="userSpaceOnUse"
       gradientTransform="translate(11.999999)" />
  </defs>
  <sodipodi:namedview
     id="base"
     pagecolor="#ffffff"
     bordercolor="#666666"
     borderopacity="1.0"
     gridtolerance="10000"
     guidetolerance="10"
     objecttolerance="10"
     inkscape:pageopacity="0.0"
     inkscape:pageshadow="2"
     inkscape:zoom="5.6568542"
     inkscape:cx="23.794819"
     inkscape:cy="8.2139431"
     inkscape:document-units="px"
     inkscape:current-layer="g2497"
     width="128px"
     height="128px"
     showgrid="true"
     showborder="true"
     inkscape:window-width="1366"
     inkscape:window-height="714"
     inkscape:window-x="0"
     inkscape:window-y="28"
     inkscape:window-maximized="1">
    <inkscape:grid
       id="GridFromPre046Settings"
       type="xygrid"
       originx="0"
       originy="0"
       spacingx="4"
       spacingy="4"
       color="#0000ff"
       empcolor="#0000ff"
       opacity="0.2"
       empopacity="0.4"
       empspacing="2" />
  </sodipodi:namedview>
  <metadata
     id="metadata7">
    <rdf:RDF>
      <cc:Work
         rdf:about="">
        <dc:format>image/svg+xml</dc:format>
        <dc:type
           rdf:resource="http://purl.org/dc/dcmitype/StillImage" />
        <dc:title></dc:title>
      </cc:Work>
    </rdf:RDF>
  </metadata>
  <g
     inkscape:label="Layer 1"
     inkscape:groupmode="layer"
     id="layer1"
     transform="translate(0,-112)">
    <g
       id="g2497"
       inkscape:label="Livello 1">
      <g
         id="g858"
         transform="matrix(0.125,0,0,0.125,0,112)">
        <rect
           rx="2.8571429"
           ry="2.7692311"
           inkscape:r_cy="true"
           inkscape:r_cx="true"
           y="0"
           x="0"
           height="80"
           width="96"
           id="rect3281"
           style="opacity:0.75;fill:url(#linearGradient3287);fill-opacity:1;fill-rule:nonzero;stroke:none;stroke-width:2;stroke-linecap:round;stroke-linejoin:round;stroke-miterlimit:4;stroke-dasharray:none;stroke-dashoffset:4;stroke-opacity:1"
           inkscape:export-filename="/home/pinheiro/Desktop/mock2.png"
           inkscape:export-xdpi="90"
           inkscape:export-ydpi="90" />
        <rect
           style="fill:url(#linearGradient3289);fill-opacity:1;fill-rule:evenodd;stroke:none;stroke-width:8;stroke-linecap:round;stroke-linejoin:round;stroke-miterlimit:4;stroke-dasharray:none;stroke-opacity:1"
           id="rect3283"
           width="80"
           height="64"
           x="8"
           y="8"
           rx="1.4999998"
           ry="1.4444445" />
        <path
           style="fill:url(#linearGradient3292);fill-opacity:1;fill-rule:evenodd;stroke:none;stroke-width:1px;stroke-linecap:butt;stroke-linejoin:miter;stroke-opacity:1"
           d="M 66.330357,8 C 49.541897,26.856165 33.804266,47.251232 24,72 H 66.772322 C 69.167917,48.30604 76.646299,26.901691 86.955357,8 Z"
           id="path3285"
           inkscape:connector-curvature="0" />
        <rect
           transform="matrix(1,0,-0.2425356,0.9701425,0,0)"
           inkscape:export-ydpi="90"
           inkscape:export-xdpi="90"
           inkscape:export-filename="/home/pinheiro/Desktop/mock2.png"
           style="fill:#81a2d1;fill-opacity:1;fill-rule:nonzero;stroke:none;stroke-width:2;stroke-linecap:round;stroke-linejoin:round;stroke-miterlimit:4;stroke-dasharray:none;stroke-dashoffset:4;stroke-opacity:1"
           id="rect2324"
           width="96"
           height="82.462112"
           x="46"
           y="49.477268"
           inkscape:r_cx="true"
           inkscape:r_cy="true"
           ry="2.63168"
           rx="2.8571429" />
        <rect
           transform="matrix(1,0,-0.2425356,0.9701425,0,0)"
           ry="1.3726974"
           rx="1.4999996"
           y="57.72348"
           x="54"
           height="65.969688"
           width="80"
           id="rect2326"
           style="fill:url(#linearGradient2534);fill-opacity:1;fill-rule:evenodd;stroke:none;stroke-width:8;stroke-linecap:round;stroke-linejoin:round;stroke-miterlimit:4;stroke-dasharray:none;stroke-opacity:1" />
        <path
           style="fill:url(#linearGradient2531);fill-opacity:1;fill-rule:evenodd;stroke:none;stroke-width:8;stroke-linecap:round;stroke-linejoin:round;stroke-miterlimit:4;stroke-dasharray:none;stroke-opacity:1"
           d="m 45,56 c -2.77,0 -5.407749,1.630996 -5.919752,3.679006 l -6.458254,25.833017 c 26.406949,3.10247 53.005766,3.380002 79.900026,0.399892 l 6.55823,-26.232909 C 119.59225,57.63099 117.77,56 115,56 Z"
           id="rect3306"
           inkscape:connector-curvature="0" />
        <path
           sodipodi:nodetypes="cccccccccc"
           id="path2537"
           d="M 132,28 108,8 104.02516,11.974843 111.8239,24 H 31.974842 v 8 H 111.8239 L 104.02516,43.823899 108,48 Z"
           style="fill:url(#linearGradient3514);fill-opacity:1;fill-rule:evenodd;stroke:none;stroke-width:1px;stroke-linecap:butt;stroke-linejoin:miter;stroke-opacity:1"
           inkscape:connector-curvature="0" />
      </g>
    </g>
  </g>
</svg>
